X:1754
T:Polska från Transtrand efter Skinnar Albin
R:Polska
S:Efter Skinnar Albin
O:Transtrand, Dalarna
Z:Håkan Lidén 2010-01-19
Q:1/4=160
M:3/4
L:1/8
K:Dm
|: e | fe d^c df | e^c A4 | AG FE D^C | DE FG A2 | fe d^c df | 
e^c A4 | AG FE D^C |1 D2 D3 :|2 D2 D4 |: ^CD E2 E2 | DE F3 F | EF G2 G2 | 
FG A3 A | BA G^F GB | AG F3 F | ED ^CD EC |1 D2 D4 :|2 D2 D3 |]
(:musicend:)
(:music:)
